X:119
T:119 MacDonald's Reel  or  Lolly Pops and Bulls' Eyes
C:Welch MS
I:abc2nwc
M:C
L:1/8
K:G
DGBG dGBG|DGBG cA A2|DGBG dGBG|AGAB G2G2|
DGBG dGBG|DGBG cA A2|DGBG dGBG|AGAB G2G2||
gfgd egdB|gfgd e2g2|gfgd egdB|AGAB G2G2|
gfgd egdB|gfgd e2g2|gfgd egdB|AGAB G2G2|]

